X:1
T:Mystery Mount Airy Tune
C:Traditional Old Time
O:ver - heard at Mt. Airy
M:C|
L:1/8
K:Gmaj
R:reel
A2|:"G"JB4A2GA |B2G2E2D2 |"G"B4A2GA |B2d2e2d2 |
"G"JB4A2GA |B2G2E2D2 |"G"B3c BAG2|"C"E4E2D2:|
|:"C"E3DE2E2 |EDEF G2D2 |"C"EDEF G2A2 |"G"B3c BAG2|
"C"E3DE2E2 |EDEF G2A2 |"G"B3c BAG2|"C"E4E4:|
Thanks
Ed
